X: 31805
T: Patsy Geary's
R: jig
M: 6/8
K: Amajor
f2f fge|fdB d2A|ded d (3fga|fge efg|
f2f fge|fdB d2e|fga age|1 edB A3:|2 edB A (3Bcd||
e2e efe|dBA A2A|BAB g2e|f (3ddd Bcd|
e2e efe|dBA A2e|fga age|1 edB A (3Bcd:|2 edB A3||

